X:2021
T:Brian Boru's March
R:March
C:Trad.
O:Ireland
M:6/8
L:1/8
Q:1/8=200
K:D
f|:"Bm"d>cB B2f|d>cB B2e|"A"c>BA A2e|c>BA A2f|
"Bm"d>cB B2f|d>cB B2B|B>de f2e|d>cB B2z:|
|:"D"Ade f2e|f2e f2e|"A"ABc e2c|e2c e2c|
"Bm"Bde f2e|f2e f2e|B>de f2e|d>cB B2z:|
|:"Bm"d>cB b2b|d>cB b2b|"A"c>BA a2a|c>BA a2a|
"Bm"d>cB b2b|d>cB b2b|B>de f2e|d>cB B2z:|

